img/reverse-transfer.svg

<svg width="24" height="24" fill="none" xmlns="http://www.w3.org/2000/svg"><g clip-path="url(#a)" fill="#1772F8"><path d="m22 8-4-4v3H3v2h15v3l4-4zM2 16l4 4v-3h15v-2H6v-3l-4 4z"/></g><defs><clipPath id="a"><path fill="#fff" d="M0 0h24v24H0z"/></clipPath></defs></svg>

<svg width="24" height="24" viewBox="0 0 24 24" fill="none" xmlns="http://www.w3.org/2000/svg">
<g clip-path="url(#clip0_403_1442)">
<path d="M22 8L18 4V7H3V9H18V12L22 8Z" fill="#1772F8"/>
<path d="M2 16L6 20V17H21V15H6V12L2 16Z" fill="#1772F8"/>
</g>
<defs>
<clipPath id="clip0_403_1442">
<rect width="24" height="24" fill="white"/>
</clipPath>
</defs>
</svg>
